src/images/logos/logo-amazon.svg

<svg width="112" height="40" viewBox="0 0 112 40" fill="none" xmlns="http://www.w3.org/2000/svg">
<path d="M64.2708 7.07975V9.48843C64.2708 9.84819 64.5477 10.0928 64.8936 10.0928H70.5275L64.0538 19.3762C63.6616 19.9714 63.6571 20.6404 63.6571 21.0327V23.4735C63.6571 23.8243 64.0493 24.2303 64.4231 24.0273C68.0911 22.0802 72.4977 22.2694 75.8153 24.0088C76.2213 24.2212 76.6091 23.8105 76.6091 23.4598V20.8897C76.5764 20.5436 76.4615 20.1932 76.0368 19.9533C74.1541 18.8916 71.9626 18.5826 69.8862 18.6336L75.4738 10.6554C75.9906 9.94056 76.2815 9.48843 76.286 9.1421V7.07975C76.286 6.71978 76.0091 6.4707 75.663 6.4707H64.8799C64.5477 6.4707 64.2708 6.7153 64.2708 7.07975Z" fill="white"/>
<path d="M21.6548 24.5166H24.9355C25.2863 24.5166 25.5676 24.2442 25.5676 23.9075V14.9837L25.5674 14.7717C25.5641 12.8467 25.5599 10.3419 27.8331 10.3419C29.9254 10.3419 29.8897 12.5704 29.8606 14.3848C29.8573 14.5911 29.8541 14.792 29.8541 14.9837L29.8588 23.9075C29.8588 24.2303 30.1172 24.4933 30.4495 24.5166H33.7253C34.0761 24.5166 34.3574 24.2442 34.3574 23.9075V14.9837C34.3574 14.9094 34.3572 14.8322 34.357 14.7526C34.3547 13.8107 34.3515 12.5414 34.662 11.7585C34.9987 10.9094 35.8294 10.3788 36.623 10.3788C37.5735 10.3788 38.3072 10.6972 38.5516 11.8275C38.6779 12.37 38.6607 13.6237 38.6492 14.4627C38.6464 14.6661 38.6439 14.8451 38.6439 14.9837V23.9075C38.6439 24.2303 38.9071 24.4933 39.2347 24.5166H42.5105C42.8613 24.5166 43.1426 24.2442 43.1426 23.9075L43.1475 13.281C43.1475 13.0218 43.1519 12.7574 43.1563 12.4904C43.1827 10.8988 43.2105 9.2154 42.3215 8.00258C41.4034 6.72894 39.899 6.16164 38.5241 6.16164C36.5906 6.16164 34.7866 7.15335 33.993 9.2807C33.0704 7.15335 31.7874 6.16164 29.7342 6.16164C27.7131 6.16164 26.2136 7.15335 25.4153 9.2807H25.3554V7.07975C25.3324 6.77522 25.0786 6.53062 24.7602 6.51673H21.701C21.3502 6.51673 21.0689 6.78438 21.0689 7.12115V23.958C21.092 24.2579 21.3411 24.4933 21.6548 24.5166Z" fill="white"/>
<path fill-rule="evenodd" clip-rule="evenodd" d="M93.0721 15.6572C93.0721 10.3419 90.4376 6.16164 85.5695 6.16164C80.8215 6.16164 78.187 10.2359 78.187 15.4774C78.187 20.6867 80.7893 24.867 85.5695 24.867C90.1608 24.867 93.0721 20.7927 93.0721 15.6572ZM83.0271 14.9468C83.0271 12.8936 83.1794 9.59891 85.597 9.59891C86.6401 9.59891 87.3735 10.0559 87.7429 11.2276C88.172 12.575 88.232 14.2731 88.232 15.6941C88.232 17.8536 88.1119 21.3971 85.5695 21.3971C83.0259 21.3971 83.0267 17.1104 83.0271 15.0226V14.9468Z" fill="white"/>
<path d="M96.1173 24.5166H99.3842C99.7348 24.5166 100.021 24.2442 100.026 23.9075V14.8406C100.026 13.7056 100.086 12.6813 100.547 11.6523C100.911 10.8404 101.645 10.305 102.443 10.305C104.534 10.305 104.515 12.6004 104.499 14.4015C104.498 14.5518 104.497 14.6987 104.497 14.8406V23.9857C104.529 24.2719 104.778 24.4933 105.078 24.5166H108.368C108.691 24.5166 108.963 24.2811 109 23.9857V13.3872C109 11.7585 109 9.49291 108.142 8.14546C107.219 6.69206 105.784 6.16164 104.312 6.16164C102.047 6.16164 100.759 7.25976 99.8408 9.56198H99.7808V6.98743C99.7162 6.72446 99.4812 6.53062 99.195 6.51673H96.1542C95.822 6.51673 95.5498 6.75666 95.5221 7.06571L95.5266 23.9075C95.5266 24.2303 95.7897 24.4933 96.1173 24.5166Z" fill="white"/>
<path fill-rule="evenodd" clip-rule="evenodd" d="M58.2079 24.5488C58.4525 24.6778 58.7662 24.6642 58.9829 24.4703L58.9876 24.4797C59.6427 23.8981 60.8334 22.8599 61.5024 22.3016C61.7701 22.0802 61.7238 21.7249 61.5161 21.4297C61.4518 21.3407 61.387 21.2535 61.3227 21.1668C60.787 20.4447 60.2796 19.7608 60.2796 18.3889V13.2763C60.2796 13.1017 60.2805 12.9282 60.2815 12.756C60.2927 10.7947 60.303 9.00345 58.8353 7.63341C57.5757 6.42441 55.4902 6 53.8937 6C50.7744 6 47.2864 7.16276 46.5572 11.0203C46.4788 11.4309 46.7788 11.6476 47.0465 11.7075L50.2254 12.0491C50.5253 12.0353 50.7422 11.7446 50.7976 11.4494C51.0698 10.1206 52.1818 9.47882 53.4322 9.47882C54.1106 9.47882 54.8764 9.72835 55.2731 10.3327C55.6878 10.9378 55.6817 11.7441 55.6761 12.4671C55.6755 12.549 55.6749 12.6297 55.6749 12.709V13.1336C55.3681 13.1686 55.046 13.2016 54.7141 13.2355C52.9894 13.4118 50.9992 13.6153 49.5057 14.2731C47.4476 15.159 46.0081 16.9724 46.0081 19.6346C46.0081 23.0446 48.1536 24.7471 50.9175 24.7471C53.2477 24.7471 54.5258 24.1979 56.3251 22.3615C56.4138 22.49 56.4937 22.6087 56.5691 22.7207C56.9995 23.3603 57.2813 23.779 58.2079 24.5488ZM55.675 16.6477L55.6749 15.7636C53.2984 15.7636 50.793 16.2712 50.793 19.0672C50.793 20.4837 51.5311 21.4434 52.7908 21.4434C53.7092 21.4434 54.5396 20.8759 55.0609 19.9533C55.6776 18.8699 55.6764 17.8496 55.675 16.6477Z" fill="white"/>
<path fill-rule="evenodd" clip-rule="evenodd" d="M15.1996 24.5488C15.4442 24.6778 15.7581 24.6642 15.9748 24.4703L15.984 24.4797C16.6393 23.8981 17.8296 22.8599 18.4988 22.3016C18.7665 22.0802 18.7202 21.7249 18.508 21.4297C18.4437 21.3407 18.379 21.2534 18.3146 21.1667C17.7789 20.4447 17.2715 19.7608 17.2715 18.3889V13.2763C17.2715 13.1017 17.2725 12.9282 17.2734 12.756C17.2847 10.7947 17.2949 9.00345 15.8272 7.63341C14.5675 6.42441 12.4819 6 10.8854 6C7.76633 6 4.28281 7.16276 3.54896 11.0203C3.47538 11.4309 3.77074 11.6476 4.03798 11.7075L7.22186 12.0491C7.51723 12.0353 7.73412 11.7446 7.78956 11.4494C8.0617 10.1206 9.17838 9.47882 10.4288 9.47882C11.1025 9.47882 11.8683 9.72835 12.2697 10.3327C12.6795 10.937 12.6733 11.7421 12.6677 12.4644C12.667 12.5471 12.6664 12.6288 12.6664 12.709V13.1336C12.3596 13.1686 12.0375 13.2016 11.7057 13.2355C9.98116 13.4118 7.99116 13.6153 6.4976 14.2731C4.44425 15.159 3 16.9724 3 19.6346C3 23.0446 5.15016 24.7471 7.90943 24.7471C10.2441 24.7471 11.5175 24.1979 13.3173 22.3615C13.4122 22.4981 13.497 22.6236 13.5767 22.7417C14.0007 23.3695 14.283 23.7875 15.1996 24.5488ZM12.6665 16.6488L12.6664 15.7636C10.295 15.7636 7.78956 16.2712 7.78956 19.0672C7.78956 20.4837 8.52301 21.4434 9.78277 21.4434C10.7054 21.4434 11.5316 20.8759 12.0528 19.9533C12.6691 18.8702 12.6679 17.8502 12.6665 16.6488Z" fill="white"/>
<path d="M45.9852 37.9435C53.6721 37.9435 62.6003 35.5212 68.7602 30.9808C69.78 30.224 68.908 29.0984 67.8653 29.5412C60.9624 32.471 53.4552 33.8831 46.631 33.8831C36.5123 33.8831 26.7165 31.11 18.794 26.5006C18.1019 26.0943 17.5852 26.8051 18.1619 27.3264C25.503 33.9569 35.2065 37.9435 45.9852 37.9435Z" fill="white"/>
<path d="M64.1639 27.8072C66.1628 27.57 70.5408 27.0503 71.3211 28.0509C72.1091 29.06 70.4487 33.2077 69.7046 35.0663L69.7017 35.0736C69.4755 35.6364 69.96 35.8627 70.4676 35.438C73.776 32.6741 74.625 26.8834 73.9511 26.0485C73.2776 25.2178 67.5008 24.5025 63.9802 26.9803C63.4357 27.3588 63.5278 27.8847 64.1324 27.8109L64.1639 27.8072Z" fill="white"/>
</svg>

<svg xmlns="http://www.w3.org/2000/svg" width="112" height="40" fill="currentColor" viewBox="0 0 112 40"><path fill="#fff" d="M64.27 7.08v2.408c0 .36.278.605.624.605h5.633l-6.473 9.283c-.392.595-.397 1.264-.397 1.657v2.44c0 .351.392.757.766.554 3.668-1.947 8.075-1.758 11.392-.018.406.212.794-.198.794-.55v-2.57c-.033-.345-.147-.696-.572-.936-1.883-1.061-4.074-1.37-6.15-1.32l5.587-7.978c.517-.714.807-1.167.812-1.513V7.08c0-.36-.277-.61-.623-.61H64.88a.594.594 0 00-.61.61zM21.655 24.517h3.28a.62.62 0 00.633-.61v-9.135c-.004-1.925-.008-4.43 2.265-4.43 2.092 0 2.057 2.228 2.028 4.043-.004.206-.007.407-.007.599l.005 8.923a.62.62 0 00.59.61h3.276a.62.62 0 00.632-.61v-8.923-.231c-.002-.942-.005-2.212.305-2.995.337-.849 1.167-1.38 1.961-1.38.95 0 1.684.32 1.929 1.45.126.542.109 1.796.097 2.635-.003.203-.005.382-.005.52v8.924c0 .323.263.586.59.61h3.276a.62.62 0 00.633-.61l.005-10.626c0-.26.004-.524.008-.79.027-1.592.055-3.276-.834-4.488-.919-1.274-2.423-1.841-3.798-1.841-1.933 0-3.737.991-4.531 3.119-.923-2.128-2.206-3.12-4.259-3.12-2.02 0-3.52.992-4.319 3.12h-.06V7.08a.618.618 0 00-.595-.563h-3.059a.616.616 0 00-.632.604v16.837a.62.62 0 00.586.559z"/><path fill="#fff" fill-rule="evenodd" d="M93.072 15.657c0-5.315-2.634-9.495-7.502-9.495-4.748 0-7.383 4.074-7.383 9.315 0 5.21 2.602 9.39 7.383 9.39 4.59 0 7.502-4.074 7.502-9.21zm-10.045-.71c0-2.053.152-5.348 2.57-5.348 1.043 0 1.777.457 2.146 1.629.429 1.347.489 3.045.489 4.466 0 2.16-.12 5.703-2.662 5.703-2.544 0-2.543-4.287-2.543-6.374v-.076z" clip-rule="evenodd"/><path fill="#fff" d="M96.117 24.517h3.267c.35 0 .637-.273.642-.61v-9.066c0-1.135.06-2.16.521-3.189.364-.812 1.098-1.347 1.896-1.347 2.091 0 2.072 2.295 2.056 4.097l-.002.439v9.145c.032.286.281.507.581.53h3.29c.323 0 .595-.235.632-.53V13.387c0-1.629 0-3.894-.858-5.242-.923-1.453-2.358-1.983-3.83-1.983-2.265 0-3.553 1.098-4.471 3.4h-.06V6.987a.628.628 0 00-.586-.47h-3.04a.62.62 0 00-.633.549l.005 16.841c0 .323.263.586.59.61z"/><path fill="#fff" fill-rule="evenodd" d="M58.208 24.549a.685.685 0 00.775-.079l.005.01c.655-.582 1.845-1.62 2.514-2.178.268-.222.222-.577.014-.872-.064-.09-.129-.177-.193-.263-.536-.722-1.043-1.406-1.043-2.778v-5.113c0-.174 0-.348.002-.52.01-1.961.021-3.753-1.447-5.123C57.575 6.424 55.49 6 53.894 6c-3.12 0-6.608 1.163-7.337 5.02-.078.41.222.628.49.688l3.178.341c.3-.014.517-.304.573-.6.272-1.328 1.384-1.97 2.634-1.97.679 0 1.444.25 1.841.854.415.605.409 1.411.403 2.134l-.001.242v.425c-.307.035-.629.068-.96.101-1.726.177-3.716.38-5.21 1.038-2.057.886-3.497 2.7-3.497 5.362 0 3.41 2.146 5.112 4.91 5.112 2.33 0 3.608-.55 5.407-2.386.089.129.169.248.244.36.43.64.712 1.058 1.639 1.828zm-2.533-7.901v-.884c-2.377 0-4.882.507-4.882 3.303 0 1.417.738 2.376 1.998 2.376.918 0 1.749-.567 2.27-1.49.617-1.083.615-2.103.614-3.305zM15.2 24.549a.685.685 0 00.775-.079l.009.01c.655-.582 1.846-1.62 2.515-2.178.268-.222.221-.577.009-.872a24.616 24.616 0 00-.193-.263c-.536-.722-1.044-1.406-1.044-2.778v-5.113l.002-.52c.012-1.961.022-3.753-1.446-5.123C14.567 6.424 12.482 6 10.885 6 7.766 6 4.283 7.163 3.55 11.02c-.074.41.222.628.489.688l3.184.341c.295-.014.512-.304.568-.6.272-1.328 1.388-1.97 2.639-1.97.673 0 1.44.25 1.84.854.41.604.404 1.41.399 2.131l-.002.245v.425a83.36 83.36 0 01-.96.101c-1.725.177-3.715.38-5.208 1.038C4.444 15.16 3 16.973 3 19.635c0 3.41 2.15 5.112 4.91 5.112 2.334 0 3.607-.55 5.407-2.386.095.137.18.263.26.38.424.628.706 1.047 1.623 1.808zm-2.534-7.9v-.885c-2.371 0-4.876.507-4.876 3.303 0 1.417.733 2.376 1.993 2.376.922 0 1.749-.567 2.27-1.49.616-1.083.615-2.103.613-3.304z" clip-rule="evenodd"/><path fill="#fff" d="M45.985 37.944c7.687 0 16.615-2.423 22.775-6.963 1.02-.757.148-1.883-.895-1.44-6.903 2.93-14.41 4.342-21.234 4.342-10.119 0-19.915-2.773-27.837-7.382-.692-.407-1.209.304-.632.825 7.341 6.63 17.044 10.617 27.823 10.617z"/><path fill="#fff" d="M64.164 27.807c1.999-.237 6.377-.757 7.157.244.788 1.009-.872 5.157-1.616 7.015l-.003.008c-.227.562.258.789.766.364 3.308-2.764 4.157-8.555 3.483-9.39-.673-.83-6.45-1.545-9.97.932-.545.379-.453.905.151.83l.032-.003z"/></svg>
